icons/src/fluent/svg/arrow_circle_up_24_filled.svg

<svg width="24" height="24" viewBox="0 0 24 24" fill="none" xmlns="http://www.w3.org/2000/svg">
<path d="M22.001 12C22.001 6.47715 17.5238 2 12.001 2C6.47813 2 2.00098 6.47715 2.00098 12C2.00098 17.5228 6.47813 22 12.001 22C17.5238 22 22.001 17.5228 22.001 12ZM7.47028 12.2801C7.20401 12.0138 7.17981 11.5972 7.39766 11.3036L7.47028 11.2195L11.4711 7.21863C11.7374 6.95233 12.1541 6.92816 12.4477 7.14609L12.5319 7.21873L16.5319 11.2203C16.8247 11.5132 16.8246 11.9881 16.5317 12.2809C16.2653 12.5471 15.8487 12.5713 15.5551 12.3534L15.471 12.2807L12.7503 9.55878L12.7506 16.2505C12.7506 16.6302 12.4685 16.944 12.1024 16.9936L12.0006 17.0005C11.6209 17.0005 11.3071 16.7183 11.2575 16.3523L11.2506 16.2505L11.2503 9.56078L8.53094 12.2801C8.26467 12.5464 7.84801 12.5706 7.5544 12.3527L7.47028 12.2801Z" fill="#212121"/>
</svg>

<svg width="24" height="24" fill="none" viewBox="0 0 24 24" xmlns="http://www.w3.org/2000/svg"><path d="M22 12.001c0-5.523-4.476-10-10-10-5.522 0-10 4.477-10 10s4.478 10 10 10c5.524 0 10-4.477 10-10Zm-14.53.28a.75.75 0 0 1-.073-.976l.073-.085 4-4a.75.75 0 0 1 .977-.073l.085.073 4 4.001a.75.75 0 0 1-.977 1.133l-.084-.072-2.72-2.722v6.691a.75.75 0 0 1-.649.744L12 17a.75.75 0 0 1-.743-.648l-.007-.102v-6.69l-2.72 2.72a.75.75 0 0 1-.976.073l-.084-.073Z" fill="#212121"/></svg>
